sticker-check-outline.svg

<svg fill="currentColor" viewBox="0 0 24 24"><path d="M18.5 2h-13C3.6 2 2 3.6 2 5.5v13C2 20.4 3.6 22 5.5 22H16l6-6V5.5C22 3.6 20.4 2 18.5 2M20 15h-1.5c-1.9 0-3.5 1.6-3.5 3.5V20H5.8c-1 0-1.8-.8-1.8-1.8V5.8C4 4.8 4.8 4 5.8 4h12.5c1 0 1.8.8 1.8 1.8V15m-4.9-6.8 1.5 1.5-6 6-3.5-3.5 1.5-1.5 2 2z"/></svg>

<svg  viewBox="0 0 24 24" fill="currentColor"><path  d="M18.5 2H5.5C3.6 2 2 3.6 2 5.5V18.5C2 20.4 3.6 22 5.5 22H16L22 16V5.5C22 3.6 20.4 2 18.5 2M20 15H18.5C16.6 15 15 16.6 15 18.5V20H5.8C4.8 20 4 19.2 4 18.2V5.8C4 4.8 4.8 4 5.8 4H18.3C19.3 4 20.1 4.8 20.1 5.8V15M15.2 8.2L16.7 9.7L10.7 15.7L7.2 12.2L8.7 10.7L10.7 12.7L15.2 8.2Z"/></svg>
